X: 52
T:Spence's Tent
% Nottingham Music Database
%P:AAB
S:James Hill, via EF
M:4/4
L:1/4
K:B
F/2A/2|BA/2c/2 B/2c/2d/2e/2|f=e/2g/2 f/2_e/2c/2A/2|B/2b/2f/2d/2 c/2g/2e/2c/2|\
A/2e/2c/2A/2 FB/2A/2|
BA/2c/2 B/2c/2d/2e/2|f=e/2g/2 f/2_e/2c/2A/2|B/2b/2f/2d/2 c/2g/2e/2c/2|\
A/2e/2c/2A/2 B::
F/2E/2|D/2F/2 !trill!  F B/2c/2d/2e/2|f/2B/2g/2B/2 a/2B/2b/2B/2|c/2e/2g/2f/2 e/2d/2c/2B/2|\
 [1Ac cF/2E/2|
D/2F/2F B/2c/2d/2e/2|f/2B/2g/2B/2 a/2B/2b/2B/2|c/2e/2g/2f/2 e/2d/2c/2B/2|cB B\
:|2B/2A/2|
B/2b/2f/2d/2 B/2a/2e/2c/2|A/2e/2c/2A/2 FG/2A/2|B/2e/2g/2e/2 d/2c/2B/2A/2|cB B\
:|


